offer/images/analytics.svg

<svg height="47" viewBox="0 0 51 47" width="51" xmlns="http://www.w3.org/2000/svg"><g fill="none" fill-rule="evenodd"><path d="m13.940332 26.0251453h-4.88454489c-.46686914 0-.84658008-.3828291-.84658008-.8535321v-5.1211923c0-.470703.37971094-.853532.84658008-.853532h4.83733009c-.559207 2.2398312-.5438672 4.5955555.0472148 6.8282564z" fill="#f3d064"/><path d="m10.3258066 26.0251453h3.6145254c-.591082-2.2326004-.6064218-4.5884252-.0472148-6.8282564h-3.5673106c-.49515816 2.2466602-.49515816 4.5815961 0 6.8282564z" fill="#edbd41"/><path d="m46.9979941 29.9129893v1.7422137c0 .2048718-.1641562.3703761-.3673593.3703761h-12.794127c.7490625-.7666624 1.3894512-1.6005107 1.9209668-2.4829659h10.8731602c.2032031.0001005.3673593.1657052.3673593.3703761z" fill="#8acaeb"/><path d="m46.9979941 24.4297564v1.7422137c0 .2048718-.1641562.3703761-.3673593.3703761h-9.5340118c.250418-.812156.4227422-1.6439958.5171719-2.4829659h9.0168399c.2032031.0001005.3673593.1656047.3673593.3703761z" fill="#c5d65c"/><path d="m46.9979941 18.9465235v1.7422137c0 .2048718-.1641562.370376-.3673593.370376h-9.0075762c-.08925-.8379658-.2554981-1.6698055-.4997402-2.4829658h9.5073164c.2032031 0 .3673593.1655043.3673593.3703761z" fill="#f3d064"/><path d="m46.9979941 13.4632906v1.7422137c0 .2048718-.1641562.370376-.3673593.370376h-10.8228575c-.5212558-.8814508-1.1513847-1.7152991-1.8891914-2.4829658h12.7120489c.2032031 0 .3673593.1655043.3673593.3703761z" fill="#ff395e"/><path d="m37.9475859 13.0929145h-4.029c.7378067.7676667 1.367836 1.601515 1.8891914 2.4829658h3.6731954c-.4274239-.8632735-.9388184-1.6948119-1.5333868-2.4829658z" fill="#b12e65"/><path d="m40.6025742 18.5761474h-3.4792558c.2442421.8131603.4104902 1.645.4997402 2.4829658h3.4230762c-.0816797-.8358568-.2296993-1.666391-.4435606-2.4829658z" fill="#edbd41"/><path d="m37.6137949 24.0594808c-.0944297.8390705-.2667539 1.6708098-.5171719 2.4829658h3.5323477c.208084-.8169765.350625-1.6475107.4268262-2.4829658z" fill="#dfde48"/><path d="m39.531873 29.5427137h-3.7743984c-.5315156.8824551-1.1719043 1.7164038-1.9209668 2.4829658h4.1885742c.5850059-.7891581 1.0875352-1.6205962 1.506791-2.4829658z" fill="#8bb1ea"/><path d="m15.2581641 30.7738526 2.3253808 2.0455042-3.4116211 3.4382308-2.1828398-2.1878098z" fill="#e2e2e3"/><g fill="#dcdddd" transform="translate(7.371094 3.012821)"><path d="m13.2470508 7.64623718c-.1969278 0-.3939551-.07572222-.544166-.22726709l-5.72624417-5.7732671c-2.61883008-.04007051-5.46676172-.05864957-5.95345313-.01757478-.25310742.06286752-.53151562-.00542308-.72914062-.20467095-.30052149-.30298931-.30052149-.79438034 0-1.09726923.28577929-.28822649.29095898-.29395085 3.81942187-.26552991 1.58757422.01265385 3.18331641.03816239 3.19925391.03836325.1998164.00321367.39066796.08466025.53191406.22716666l5.94667968 5.9954124c.3005215.30298931.3005215.79438034 0 1.09726923-.1503105.15144444-.3473379.22736752-.5442656.22736752z" fill-rule="nonzero"/><path d="m35.6248945 36.6912329h-6.5383593c-.2040997 0-.3999317-.0817479-.5441661-.2272671l-4.4931796-4.5301773c-.3005215-.3029894-.3005215-.7943804 0-1.0972693.3005214-.3029893.7879101-.3030897 1.088332 0l4.267664 4.3028099h6.2196094c.4250332 0 .7695821.3473782.7695821.7759017s-.3444493.7760021-.7694825.7760021z"/><ellipse cx="18.128906" cy="19.598397" rx="13.442684" ry="13.553073"/></g><path d="m27.7185 32.1943974c-5.2498125-5.292923-5.2498125-13.8737371 0-19.1666602 1.0926152-1.1015876 2.326875-1.9731966 3.6434121-2.6162329-5.0083594-2.44661114-11.2100391-1.57500216-15.3672363 2.6162329-5.2498125 5.2929231-5.2498125 13.8737372 0 19.1666602 4.1571972 4.1913355 10.3588769 5.0627436 15.3672363 2.6162329-1.3164375-.6431367-2.5506973-1.5146453-3.6434121-2.6162329z" fill="#bececd"/><path d="m33.1402383 14.7627201c4.2410683 4.2758953 4.2410683 11.2335021 0 15.5093974-4.2410684 4.2758953-11.1420059 4.2758953-15.3830742 0-4.2410684-4.2758953-4.2410684-11.2335021 0-15.5093974 4.2410683-4.2758953 11.1420058-4.2760962 15.3830742 0z" fill="#8acaeb"/><path d="m33.1402383 14.7627201c-4.2410684-4.2758953-11.1420059-4.2758953-15.3830742 0-.4896797.4937008-.9221836 1.023656-1.2988067 1.5806261 4.2421641-3.0113141 10.1585625-2.6063911 13.9497949 1.2158739 3.7513887 3.7821944 4.1838926 9.6621154 1.2988067 13.9287714.5034258-.3573206.9834433-.7622436 1.4333789-1.215874 4.2410683-4.2759957 4.2410683-11.2336025-.0000996-15.5093974z" fill="#8bb1ea"/><path d="m14.4288164 35.7988355c.4186582.4220961.4186582 1.1060064 0 1.5281025l-9.17183202 9.2481539c-.48738868.4903867-1.27649415.4903867-1.76298633 0l-1.71985547-1.7349829c-.48738867-.4903868-.48738867-1.2859722 0-1.776359l9.17183202-9.2481538c.4186582-.4220962 1.0969981-.4220962 1.5156563 0z" fill="#717483"/><path d="m3.54958008 46.5544038c-.48738867-.4903867-.48738867-1.2859722 0-1.7763589l9.17183202-9.2481539c.3366797-.3394444.8409024-.4053248 1.2434238-.1989466l-1.5031054-1.5154487c-.4186582-.4220961-1.0969981-.4220961-1.5156563 0l-9.17183201 9.2481539c-.48738867.4903867-.48738867 1.2859722 0 1.7763589l1.71985547 1.734983c.08885156.0895811.18786328.1622906.29325.2192329z" fill="#4c5574"/><path d="m35.6004902 18.4727073h-10.0943144c-.3714434 0-.6731602-.3041945-.6731602-.6786881v-2.5740534c0-.3744936.3017168-.678688.6731602-.678688h7.4488887c.076998.0724081.1519043.1459209.2268105.2214423 1.0825547 1.0914444 1.8880957 2.3576325 2.4186152 3.7099872z" fill="#ff395e"/><path d="m33.1402383 14.7627201c-.0746074-.0752201-.1503106-.1487329-.2266113-.2214423h-7.4075508c-.1237149 0-.2393614.0343461-.3390703.0931966 1.9218632.4448931 3.7468066 1.4181346 5.2409472 2.9246453.2897637.2921431.5573145.5980448.807334.9134871h4.3428691c-.5295234-1.3517521-1.335164-2.6184423-2.4179179-3.7098867z" fill="#b12e65"/><path d="m36.1853965 20.5419124c.2339824 1.2984252.2349785 2.632.0030879 3.9314295h-10.6823086c-.3714434 0-.6731602-.3041945-.6731602-.6786881v-2.5740534c0-.3744936.3017168-.678688.6731602-.678688z" fill="#f3d064"/><path d="m36.1438594 20.5419124h-3.635543c.5954649 1.2449979.9445957 2.5800791 1.0465957 3.9314295h2.5925332c.2316914-1.2993291.2304961-2.632703-.0035859-3.9314295z" fill="#edbd41"/><path d="m25.5061758 26.5424466h10.1014863c-.5295234 1.359485-1.3381523 2.632-2.4258867 3.7296709-.0677344.0682906-.1364649.1355769-.206291.2017586h-7.4694082c-.3714434 0-.6731602-.3041945-.6731602-.6786881v-2.5740534c.0000996-.3744936.3018164-.678688.6732598-.678688z" fill="#c5d65c"/><path d="m33.1402383 30.2720171c1.0879336-1.0968675 1.8960644-2.3704872 2.4257871-3.7296709h-2.0474707c-.1508086 1.3596859-.5534297 2.6953696-1.2063692 3.9314294h.6190723c.0699258-.0668846.1404492-.1326645.2089805-.2017585z" fill="#a9bd48"/><path d="m21.0362051 18.2047671v8.6056197c0 .5949316-.4782246 1.0769829-1.068211 1.0769829h-3.9619628c-1.8532325-3.3292671-1.8491485-7.4335321.0102597-10.7596859h3.9517031c.5899864.0001004 1.068211.4821517 1.068211 1.0770833z" fill="#efc343"/><ellipse cx="4.002006" cy="4.092013" fill="#ff395e" rx="4.002006" ry="4.03487"/><ellipse cx="46.997994" cy="38.957677" fill="#c5d65c" rx="4.002006" ry="4.03487"/><path d="m3.43761914 4.09201282c0-1.60814316.93314063-2.99604914 2.28324609-3.64440812-.52075781-.25016453-1.10357226-.39046154-1.71885937-.39046154-2.21033203 0-4.00200586 1.80638675-4.00200586 4.03486966s1.79167383 4.03486966 4.00200586 4.03486966c.61528711 0 1.19800195-.14039744 1.71885937-.39046154-1.35000585-.64835897-2.28324609-2.03636538-2.28324609-3.64440812z" fill="#b12e65"/><path d="m46.4336074 38.9574765c0-1.6081432.9331406-2.9960491 2.2832461-3.6444081-.5207578-.2501646-1.1035723-.3904616-1.7188594-.3904616-2.210332 0-4.0020058 1.8063868-4.0020058 4.0348697s1.7916738 4.0348697 4.0020058 4.0348697c.6152871 0 1.198002-.1403975 1.7188594-.3904616-1.3501055-.648359-2.2832461-2.0363654-2.2832461-3.6444081z" fill="#dfde48"/></g></svg>

<?xml version="1.0" encoding="UTF-8"?>
<svg width="51px" height="47px" viewBox="0 0 51 47" version="1.1" xmlns="http://www.w3.org/2000/svg" xmlns:xlink="http://www.w3.org/1999/xlink">
    <!-- Generator: Sketch 52.2 (67145) - http://www.bohemiancoding.com/sketch -->
    <title>analytics (1)</title>
    <desc>Created with Sketch.</desc>
    <g id="Page-1" stroke="none" stroke-width="1" fill="none" fill-rule="evenodd">
        <g id="offer" transform="translate(-498.000000, -7928.000000)">
            <g id="analytics-(1)" transform="translate(498.000000, 7928.000000)">
                <path d="M13.940332,26.0251453 L9.05578711,26.0251453 C8.58891797,26.0251453 8.20920703,25.6423162 8.20920703,25.1716132 L8.20920703,20.0504209 C8.20920703,19.5797179 8.58891797,19.1968889 9.05578711,19.1968889 L13.8931172,19.1968889 C13.3339102,21.4367201 13.34925,23.7924444 13.940332,26.0251453 Z" id="Path" fill="#F3D064"></path>
                <path d="M10.3258066,26.0251453 L13.940332,26.0251453 C13.34925,23.7925449 13.3339102,21.4367201 13.8931172,19.1968889 L10.3258066,19.1968889 C9.83064844,21.4435491 9.83064844,23.778485 10.3258066,26.0251453 Z" id="Path" fill="#EDBD41"></path>
                <path d="M46.9979941,29.9129893 L46.9979941,31.655203 C46.9979941,31.8600748 46.8338379,32.0255791 46.6306348,32.0255791 L33.8365078,32.0255791 C34.5855703,31.2589167 35.225959,30.4250684 35.7574746,29.5426132 L46.6306348,29.5426132 C46.8338379,29.5427137 46.9979941,29.7083184 46.9979941,29.9129893 Z" id="Path" fill="#8ACAEB"></path>
                <path d="M46.9979941,24.4297564 L46.9979941,26.1719701 C46.9979941,26.3768419 46.8338379,26.5423462 46.6306348,26.5423462 L37.096623,26.5423462 C37.347041,25.7301902 37.5193652,24.8983504 37.6137949,24.0593803 L46.6306348,24.0593803 C46.8338379,24.0594808 46.9979941,24.224985 46.9979941,24.4297564 Z" id="Path" fill="#C5D65C"></path>
                <path d="M46.9979941,18.9465235 L46.9979941,20.6887372 C46.9979941,20.893609 46.8338379,21.0591132 46.6306348,21.0591132 L37.6230586,21.0591132 C37.5338086,20.2211474 37.3675605,19.3893077 37.1233184,18.5761474 L46.6306348,18.5761474 C46.8338379,18.5761474 46.9979941,18.7416517 46.9979941,18.9465235 Z" id="Path" fill="#F3D064"></path>
                <path d="M46.9979941,13.4632906 L46.9979941,15.2055043 C46.9979941,15.4103761 46.8338379,15.5758803 46.6306348,15.5758803 L35.8077773,15.5758803 C35.2865215,14.6944295 34.6563926,13.8605812 33.9185859,13.0929145 L46.6306348,13.0929145 C46.8338379,13.0929145 46.9979941,13.2584188 46.9979941,13.4632906 Z" id="Path" fill="#FF395E"></path>
                <path d="M37.9475859,13.0929145 L33.9185859,13.0929145 C34.6563926,13.8605812 35.2864219,14.6944295 35.8077773,15.5758803 L39.4809727,15.5758803 C39.0535488,14.7126068 38.5421543,13.8810684 37.9475859,13.0929145 Z" id="Path" fill="#B12E65"></path>
                <path d="M40.6025742,18.5761474 L37.1233184,18.5761474 C37.3675605,19.3893077 37.5338086,20.2211474 37.6230586,21.0591132 L41.0461348,21.0591132 C40.9644551,20.2232564 40.8164355,19.3927222 40.6025742,18.5761474 Z" id="Path" fill="#EDBD41"></path>
                <path d="M37.6137949,24.0594808 C37.5193652,24.8985513 37.347041,25.7302906 37.096623,26.5424466 L40.6289707,26.5424466 C40.8370547,25.7254701 40.9795957,24.8949359 41.0557969,24.0594808 L37.6137949,24.0594808 Z" id="Path" fill="#DFDE48"></path>
                <path d="M39.531873,29.5427137 L35.7574746,29.5427137 C35.225959,30.4251688 34.5855703,31.2591175 33.8365078,32.0256795 L38.025082,32.0256795 C38.6100879,31.2365214 39.1126172,30.4050833 39.531873,29.5427137 Z" id="Path" fill="#8BB1EA"></path>
                <polygon id="Path" fill="#E2E2E3" points="15.2581641 30.7738526 17.5835449 32.8193568 14.1719238 36.2575876 11.989084 34.0697778"></polygon>
                <g id="Group" transform="translate(7.371094, 3.012821)" fill="#DCDDDD">
                    <path d="M13.2470508,7.64623718 C13.050123,7.64623718 12.8530957,7.57051496 12.7028848,7.41897009 L6.97664063,1.64570299 C4.35781055,1.60563248 1.50987891,1.58705342 1.0231875,1.62812821 C0.770080078,1.69099573 0.491671875,1.62270513 0.294046875,1.42345726 C-0.00647460937,1.12046795 -0.00647460937,0.629076923 0.294046875,0.326188034 C0.579826172,0.0379615385 0.585005859,0.0322371795 4.11346875,0.0606581197 C5.70104297,0.0733119658 7.29678516,0.0988205128 7.31272266,0.0990213675 C7.51253906,0.102235043 7.70339062,0.183681624 7.84463672,0.326188034 L13.7913164,6.32160043 C14.0918379,6.62458974 14.0918379,7.11598077 13.7913164,7.41886966 C13.6410059,7.5703141 13.4439785,7.64623718 13.2470508,7.64623718 Z" id="Shape" fill-rule="nonzero"></path>
                    <path d="M35.6248945,36.6912329 L29.0865352,36.6912329 C28.8824355,36.6912329 28.6866035,36.609485 28.5423691,36.4639658 L24.0491895,31.9337885 C23.748668,31.6307991 23.748668,31.1394081 24.0491895,30.8365192 C24.3497109,30.5335299 24.8370996,30.5334295 25.1375215,30.8365192 L29.4051855,35.1393291 L35.6247949,35.1393291 C36.0498281,35.1393291 36.394377,35.4867073 36.394377,35.9152308 C36.394377,36.3437543 36.0499277,36.6912329 35.6248945,36.6912329 Z" id="Path"></path>
                    <ellipse id="Oval" cx="18.1289062" cy="19.5983974" rx="13.4426836" ry="13.5530726"></ellipse>
                </g>
                <path d="M27.7185,32.1943974 C22.4686875,26.9014744 22.4686875,18.3206603 27.7185,13.0277372 C28.8111152,11.9261496 30.045375,11.0545406 31.3619121,10.4115043 C26.3535527,7.96489316 20.151873,8.83650214 15.9946758,13.0277372 C10.7448633,18.3206603 10.7448633,26.9014744 15.9946758,32.1943974 C20.151873,36.3857329 26.3535527,37.257141 31.3619121,34.8106303 C30.0454746,34.1674936 28.8112148,33.295985 27.7185,32.1943974 Z" id="Path" fill="#BECECD"></path>
                <path d="M33.1402383,14.7627201 C37.3813066,19.0386154 37.3813066,25.9962222 33.1402383,30.2721175 C28.8991699,34.5480128 21.9982324,34.5480128 17.7571641,30.2721175 C13.5160957,25.9962222 13.5160957,19.0386154 17.7571641,14.7627201 C21.9982324,10.4868248 28.8991699,10.4866239 33.1402383,14.7627201 Z" id="Path" fill="#8ACAEB"></path>
                <path d="M33.1402383,14.7627201 C28.8991699,10.4868248 21.9982324,10.4868248 17.7571641,14.7627201 C17.2674844,15.2564209 16.8349805,15.7863761 16.4583574,16.3433462 C20.7005215,13.3320321 26.6169199,13.7369551 30.4081523,17.5592201 C34.159541,21.3414145 34.5920449,27.2213355 31.706959,31.4879915 C32.2103848,31.1306709 32.6904023,30.7257479 33.1403379,30.2721175 C37.3814062,25.9961218 37.3814062,19.038515 33.1402383,14.7627201 Z" id="Path" fill="#8BB1EA"></path>
                <path d="M14.4288164,35.7988355 C14.8474746,36.2209316 14.8474746,36.9048419 14.4288164,37.326938 L5.25698438,46.5750919 C4.7695957,47.0654786 3.98049023,47.0654786 3.49399805,46.5750919 L1.77414258,44.840109 C1.28675391,44.3497222 1.28675391,43.5541368 1.77414258,43.06375 L10.9459746,33.8155962 C11.3646328,33.3935 12.0429727,33.3935 12.4616309,33.8155962 L14.4288164,35.7988355 Z" id="Path" fill="#717483"></path>
                <path d="M3.54958008,46.5544038 C3.06219141,46.0640171 3.06219141,45.2684316 3.54958008,44.7780449 L12.7214121,35.529891 C13.0580918,35.1904466 13.5623145,35.1245662 13.9648359,35.3309444 L12.4617305,33.8154957 C12.0430723,33.3933996 11.3647324,33.3933996 10.9460742,33.8154957 L1.77424219,43.0636496 C1.28685352,43.5540363 1.28685352,44.3496218 1.77424219,44.8400085 L3.49409766,46.5749915 C3.58294922,46.6645726 3.68196094,46.7372821 3.78734766,46.7942244 L3.54958008,46.5544038 Z" id="Path" fill="#4C5574"></path>
                <path d="M35.6004902,18.4727073 L25.5061758,18.4727073 C25.1347324,18.4727073 24.8330156,18.1685128 24.8330156,17.7940192 L24.8330156,15.2199658 C24.8330156,14.8454722 25.1347324,14.5412778 25.5061758,14.5412778 L32.9550645,14.5412778 C33.0320625,14.6136859 33.1069688,14.6871987 33.181875,14.7627201 C34.2644297,15.8541645 35.0699707,17.1203526 35.6004902,18.4727073 Z" id="Path" fill="#FF395E"></path>
                <path d="M33.1402383,14.7627201 C33.0656309,14.6875 32.9899277,14.6139872 32.913627,14.5412778 L25.5060762,14.5412778 C25.3823613,14.5412778 25.2667148,14.5756239 25.1670059,14.6344744 C27.0888691,15.0793675 28.9138125,16.052609 30.4079531,17.5591197 C30.6977168,17.8512628 30.9652676,18.1571645 31.2152871,18.4726068 L35.5581562,18.4726068 C35.0286328,17.1208547 34.2229922,15.8541645 33.1402383,14.7627201 Z" id="Path" fill="#B12E65"></path>
                <path d="M36.1853965,20.5419124 C36.4193789,21.8403376 36.420375,23.1739124 36.1884844,24.4733419 L25.5061758,24.4733419 C25.1347324,24.4733419 24.8330156,24.1691474 24.8330156,23.7946538 L24.8330156,21.2206004 C24.8330156,20.8461068 25.1347324,20.5419124 25.5061758,20.5419124 L36.1853965,20.5419124 Z" id="Path" fill="#F3D064"></path>
                <path d="M36.1438594,20.5419124 L32.5083164,20.5419124 C33.1037813,21.7869103 33.4529121,23.1219915 33.5549121,24.4733419 L36.1474453,24.4733419 C36.3791367,23.1740128 36.3779414,21.8406389 36.1438594,20.5419124 Z" id="Path" fill="#EDBD41"></path>
                <path d="M25.5061758,26.5424466 L35.6076621,26.5424466 C35.0781387,27.9019316 34.2695098,29.1744466 33.1817754,30.2721175 C33.114041,30.3404081 33.0453105,30.4076944 32.9754844,30.4738761 L25.5060762,30.4738761 C25.1346328,30.4738761 24.832916,30.1696816 24.832916,29.795188 L24.832916,27.2211346 C24.8330156,26.846641 25.1347324,26.5424466 25.5061758,26.5424466 Z" id="Path" fill="#C5D65C"></path>
                <path d="M33.1402383,30.2720171 C34.2281719,29.1751496 35.0363027,27.9015299 35.5660254,26.5423462 L33.5185547,26.5423462 C33.3677461,27.9020321 32.965125,29.2377158 32.3121855,30.4737756 L32.9312578,30.4737756 C33.0011836,30.406891 33.071707,30.3411111 33.1402383,30.2720171 Z" id="Path" fill="#A9BD48"></path>
                <path d="M21.0362051,18.2047671 L21.0362051,26.8103868 C21.0362051,27.4053184 20.5579805,27.8873697 19.9679941,27.8873697 L16.0060313,27.8873697 C14.1527988,24.5581026 14.1568828,20.4538376 16.016291,17.1276838 L19.9679941,17.1276838 C20.5579805,17.1277842 21.0362051,17.6098355 21.0362051,18.2047671 Z" id="Path" fill="#EFC343"></path>
                <ellipse id="Oval" fill="#FF395E" cx="4.00200586" cy="4.09201282" rx="4.00200586" ry="4.03486966"></ellipse>
                <ellipse id="Oval" fill="#C5D65C" cx="46.9979941" cy="38.9576774" rx="4.00200586" ry="4.03486966"></ellipse>
                <path d="M3.43761914,4.09201282 C3.43761914,2.48386966 4.37075977,1.09596368 5.72086523,0.447604701 C5.20010742,0.197440171 4.61729297,0.0571431624 4.00200586,0.0571431624 C1.79167383,0.0571431624 0,1.86352991 0,4.09201282 C0,6.32049573 1.79167383,8.12688248 4.00200586,8.12688248 C4.61729297,8.12688248 5.20000781,7.98648504 5.72086523,7.73642094 C4.37085938,7.08806197 3.43761914,5.70005556 3.43761914,4.09201282 Z" id="Path" fill="#B12E65"></path>
                <path d="M46.4336074,38.9574765 C46.4336074,37.3493333 47.366748,35.9614274 48.7168535,35.3130684 C48.1960957,35.0629038 47.6132812,34.9226068 46.9979941,34.9226068 C44.7876621,34.9226068 42.9959883,36.7289936 42.9959883,38.9574765 C42.9959883,41.1859594 44.7876621,42.9923462 46.9979941,42.9923462 C47.6132812,42.9923462 48.1959961,42.8519487 48.7168535,42.6018846 C47.366748,41.9535256 46.4336074,40.5655192 46.4336074,38.9574765 Z" id="Path" fill="#DFDE48"></path>
            </g>
        </g>
    </g>
</svg>
